X:1
T:Merry go round of Life
T:Merry go round of Life
%%score 1 2
L:1/8
Q:1/4=110
M:3/4
K:Bb
V:1 treble nm="Flute" snm="Fl."
V:2 treble nm="Flute" snm="Fl."
V:1
 d'e' d'e' d'e' | c'd' c'd' c'd' | bc' bc' bc' |"^rit." a/g/ ^f4- f || z2 z4 | z6 ||!ff! D2 G2 B2 | %7
 d4 d2 | c2 B2 A2 | B4- B2 | G2 B2 d2 | g4 g2 | g2 f2 e2 | f4- f2 | A2 d2 f2 | a4 g2 | f2 =e2 f2 | %17
 g4 f2 | =e4 d2 | c2 B2 c2 | d2 c2 G2 |!>(! A4- A2-!>)! | A6 ||[Q:1/4=70] z2 z2 !fermata!^f'2 | %24
 z6 | z6 | z6 | z6 ||[K:Bb][Q:1/4=160]!mp!"^legato" z2 g2 g2 | z2 g2 g2 | z2 g2 g2 | D2 B2 d2 | %32
 c2 f2 f2 | F2 e2 e2 | G2 d2 d2 | G2 d2 d2 | c2 e2 e2 | F2 e2 e2 | B2 A2 A2 | F2 B2 c2 | e2 d2 d2 | %41
 A2 g2 a2 | d2 B2 B2 | c2 g2 g2 | A2 f2 f2 | A2 A2 B2 | c6 |!ff! d2 g2 b2 | d'4 d'2 | c'2 b2 a2 | %50
 b6 | g2 b2 d'2 | g'4 g'2 | g'2 a'2 f'e' | f'6 | a2 d'2 f'2 | a'4 g'2- | g'2 f'=e' _e'=e' | %58
 g'4 f'2- | f'2 =e'd' ^c'd' | d'2 c'd' c'b | a3 =b ^c'2 | d'6- | d'6 | z4!>(! (d2 | %65
 =e2 ^f2 d2)!>)! ||!mp! c2 g2 g2 | F2 e2 e2 | G2 f2 f2 | A2 d2 d2 | c2 A2 A2 | F2 e2 e2 | %72
 B2 G2 G2 | G2 z2!f! d2 | (3d=ed ^c2 d2 | f2 =e2 d2 | ^c4 =e2 | A4 A2 | f4 f2 | f2 =e2 d2 | ^c6 || %81
!mp! A4 A2 | B4 B2 | d4 d2 | f4 f2 | d4 d2 | c4 c2 | c4 c2 | f4 f2 | c4 c2 |!f! =e2 ^d2 e2 | %91
 g2 f2 =e2 | d2 ^c2 d2 | =e4 a2 | c'4 b2 | a4 g2 | ^fa (3(c'd'c') b2 | z2 (3(bc'b) a2 | %98
 z2 (3(gag) ^f2- | !fermata!f6 ||[Q:1/4=170]!f! .G.c .e .g2 .g | .f.e .d .e3 | .c.e .g .c'2 .c' | %103
 .c'.b ._a .b3 |!p! .d.g .b .d'2 .c' | .b.a .b .c'2 .b | .a.g .^f .g2 .g | .g.f .c .d3 | %108
!f! .G.c .e .g2 .g | .f.e .d .e3 | .c.e .g .c'2 .c' | .c'.b ._a .b3 |!ff! .d.g .b .d'2 .c' | %113
 .b.a .b .c'2 .b | .a.g .^f.g .=f.e | .d.=e .^f g3- | g6- | g6 || %118
[Q:1/4=80]"^Maestoso" e2 ^g2 =b2- | !>!b2 z (=E Ac) ||[Q:1/4=170]!fff! !tenuto!=e4 !tenuto!e2 | %121
 (d2 c2 =B2) | c6 | (A2 c2 =e2) | !tenuto!a4 !tenuto!a2 | (a2 g2 f2) | g6 | (=B2 =e2 g2) | %128
 (=b4 a2) | (g2 ^f2 g2) | (a4 g2) | (^f4 =e2) | (d2 c2 d2) | (=e2 d2 A2) | =B6 | =E2 A2 c2 | %136
 =e4 e2 | d2 c2 =B2 | c6 | A2 c2 =e2 | a4 a2 | a2 =b2 gf | g6 | (=B2 =e2 g2) |!ff! =b4 a2- | %145
 a z (g^f) (=f^f) | a4 g2- | g z (^f=e) (^de) | =e'2 (d'e' d'c') | (=b3 ^c' ^d'2) |!mf! =e'6- | %151
 e'6- | e'6- | e'2 z4 | z2 z4 |!ff! (a3 g =e2) | (^d3 ^c ^f2- | f4) .B2 | ^G2 .=B2 .=e2 | %159
 =B2 .=e2 .=b2 |!<(! =E^D E^F ^Gc | =B^A B^d =E^F | ^G^F G=B c^d!<)! | z2 z2 .e'2 | %164
 !fermata!=e'6 |] %165
V:2
 bc' bc' bc' | ab ab ab | ga ga ga | ^f/e/ d4- d || DA d^f d'2- | d'6 ||!ff! D2 G2 G2 | B4 B2 | %8
 A2 G2 ^F2 | G4- G2 | G2 B2 B2 | e4 e2 | e2 d2 c2 | d4- d2 | A2 d2 d2 | f4 =e2 | d2 c2 d2 | %17
 =e4 d2 | c4 B2 | A2 G2 A2 | B2 c2 G2 |!>(! A4- A2-!>)! | A6 || Dd ga !fermata!b2 | %24
 z/ (a/4c'/4b- b2 a2) | z3/4 (c/4B- BA) (G_G) |!>(! E D2- D3- | D6!>)! ||[K:Bb]!f! G2 d2 d2 | %29
 D2 A2 A2 | G2 d2 d2 | D2 G2 B2 | d4 d2 | c2 B2 A2 | B6 | G2 B2 d2 | g4 g2 | g2 f2 e2 | f6 | %39
 A2 d2 f2 | a4 g2 | f2 =e2 f2 | g4 f2 | =e4 d2 | c2 B2 c2 | d2 c2 G2 | A6 | z6 |!mf! c2 e2 e2 | %49
 e2 f2 e2 | G2 d2 d2 | e2 g2 b2 | c'2 e'2 e'2 | b2 d'2 d'2 | f2 c'2 c'2 | f2 b2 d'2 | c'4 d2 | %57
 B2 g2 g2 | c'4 d2 | B2 g2 g2 | B2 g2 g2 | f3 g a2 | a6 |!f! (^f2 g2 a2 | ^f2) z4 | z4!f! d2 || %66
 e4 d2 | c2 B2 A2 | B2 c2 d2 | F4 F2 | e4 d2 | c2 B2 c2 | d6- | d6 |!mp! A6 | d2 c2 B2 | A4 A2 | %77
 F4 F2 | d4 d2 | d2 c2 B2 | A6 ||!mp!!<(! (^cA) (=Bc) (=eg) | ^f4!<)! f2 | (^f2 g2 a2) | %84
 b2!f! (3(f'=e'^d' (3=d'^c'=c' | b2) (3(ba^g (3=g^f=f) | =e4 e2 | (=e2 f2 g2) | %88
 a2!ff! (3(g^f=f (3=e^d=d | c2) (3(c'=b^a (3=a^g=g) |!mp! =e2 ^d2 e2 | g2 f2 =e2 | d2 ^c2 d2 | %93
 c4 f2 | g4 e2 | f4 e2 | Ad (3(aba) g2 | z2 (3(gag) ^f2 | z2 (3(e^fe) d2- | !fermata!d6 || %100
!f! .G.c .e .e2 .e | .f.e .d .e3 | .c.e .g .g2 .g | .c'.b ._a .b3 |!p! .d.g .b .b2 .a | %105
 .b.a .b .a2 .g | .a.g .^f .e2 .e | .g.f .c .d3 |!f! .G.c .e .e2 .e | .f.e .d .e3 | %110
 .c.e .g .g2 .g | .c'.b ._a .b3 |!ff! .d.g .b .b2 .a | .b.a .b .a2 .g | .a.g .^f.g .=f.e | %115
 .d.=e .^f g3- | g6- | g6 || E2 ^G2 =B2- | !>!B6 ||!f! !>!c2 (c'=b c'd') | =b2 ^g2 g2 | %122
 !>!=e2 (a^g a=b) | =e2 a2 a2 | c2 (dc df) | A2 =B2 B2 | =B2 (cB c=e) | G2 =e2 e2 | c2 =e2 e2 | %129
 =B2 ^d2 d2 | =B2 =e2 e2 | A2 .g.a .g.^f | G2 .=b.c' .b.a | ^F2 .=b.c' .a.b | %134
 (=e'f') .e'.d' .c'.=b | (=e'd') .c'.=b .a.^g | A2 .=b.c' .b.a | =B2 =e2 e2 | A2 =e2 e2 | %139
 fa .a.=b .a.^g | =B2 =e2 e2 | A2 =e2 d2 | =b6 | (g2 =b2 =e'2) |!mf! g'4 ^f'2- | f' z .A2 .A2 | %146
 ^f'4 =e'2- | e' z .G2 .G2 | G2 .c2 .c2 | (d3 =e ^f2) |!f! z2 (3(=ba^g (3^f=e^d) | %151
 (3(=e'^d'^c' (3=ba^g (3^f=e^d) | (3(=e'^d'^c' (3=ba^g (3^f=e^d | =e2) z4 | %154
!ff! (3(=e'^f'e' ^d'2 e'2) | (=e'3 d' c'2) | (=b3 ^c' ^d'2- | d'4) .b2 | =e'6- | e'6 | %160
!<(! =E^D E^F ^Gc | =B^A B^d =e^f | ^g^f g=b c'^d'!<)! | z2 z2 .g2 | !fermata!_a6 |] %165

